X:1
T:Title
%%score { ( 1 3 ) | ( 2 4 ) }
L:1/8
Q:1/4=100
M:4/4
K:C
V:1 treble nm="Grand Piano"
V:3 treble 
V:2 bass 
V:4 bass 
V:1
 [EG]2 [FA]>[EG] [_E^F]2 [=EG]2 | [B,DG]>[B,D] [CE]>[DF] [CE]4 | [EG]2 [_E^F]>[=EG] [=FA]2 [Fc]2 | %3
w: John~R.~Sweney * * * *|||
 [^Fc]>[Fc] [FB]>[Fc] [Gd]4 | [Ge]2 [Fd]>[Ec] [EG]2 [CE]2 | [EG]>[EG] [Gc]>[GB] [FA]4 | %6
w: |||
 [Af]2 [Ge]>[Fd] [Ec]2 [CEG]2 | [DFB]>[DFB] [CFA]>[FB] [Ec]4 | c2 A2 G2 E2 | %9
w: |||
 [B,D]>[DF] [CE]>[B,D] C4 | E2 E2 [EA]2 [Ec]2 | B>c B>A z2 F2 | [EG]2 [Ge]>[Fd] [Ec]2 [CE]2 | %13
w: ||||
 [EG]>[EG] [Gc]>[GB] [FA]4 | [Af]2 [Ge]>d c2 G2 | [FB]3 [Ec] [Ec]4 |] %16
w: |||
V:2
 [C,C]2 [C,C]>[C,C] [C,C]2 [C,C]2 | [G,,G,]>[G,,G,] [G,,G,]>[G,,G,] [C,G,]4 | %2
 [C,C]2 [C,C]>[C,C] [F,C]2 [F,A,]2 | [D,A,]>[D,A,] [D,D]>[D,C] [G,B,]4 | %4
 [C,C]2 [C,G,]>[C,G,] [C,C]2 [C,G,]2 | [C,C]>[C,C] [E,C]>[E,C] [F,C]4 | %6
 [D,D]2 [E,C]>[F,A,] G,2 G,2 | G,,>G,, G,,>[G,,G,] [C,G,]4 | [A,E]2 [F,CF]2 [E,G,C]2 [C,G,C]2 | %9
 [G,,G,]>[G,,G,] [G,,G,]>[G,,F,] [C,E,A,]4 | [A,C]2 [E,^G,B,]2 [C,A,]2 [A,,A,]2 | z4 D2 z2 | %12
 [C,C]2 [C,C]>[C,G,] [C,G,]2 [C,G,]2 | [C,C]>[C,C] [E,C]>[E,C] [F,C]4 | %14
 [D,D]2 [E,C]>[F,A,F] [G,E]2 [G,CE]2 | [G,,G,]3 [C,G,] [C,G,]4 |] %16
V:3
 x8 | x8 | x8 | x8 | x8 | x8 | x8 | x8 | x8 | x8 | x8 | z4 G4 | x8 | x8 | x8 | x8 |] %16
V:4
 x8 | x8 | x8 | x8 | x8 | x8 | x8 | x8 | x8 | x8 | x8 | [D,G,D]>[D,^F,A,D] [D,G,D]>[D,CD] [G,B,]4 | %12
 x8 | x8 | x8 | x8 |] %16

